X:349
T:Swallow's Tail
Z: id:dc-reel-325
M:C
L:1/8
K:A Dorian
gf|eAA2 eAcA|Bdef gedB|G2BG dGBG|Bdef g2fg|!
eAA2 efed|^cdef gfgb|afge dBGB|AcBG A2:|!
Bd|eaa^g aba=g|edef gedB|G2BG dGBG|Bdef g2fg|!
a^gab a=ged|^cdef gfgb|afge dBGB|AcBG A2:|!

